icon_installer/data/icons/scalable/actions/show-network-printer-symbolic.svg

<?xml version="1.0" encoding="UTF-8"?>
<svg height="16px" viewBox="0 0 16 16" width="16px" xmlns="http://www.w3.org/2000/svg">
    <g fill="#222222">
        <path d="m 6 11.953125 v 2.046875 h -5.53125 c -0.261719 0 -0.46875 0.207031 -0.46875 0.46875 v 1.0625 c 0 0.261719 0.207031 0.46875 0.46875 0.46875 h 13.0625 c 0.261719 0 0.46875 -0.207031 0.46875 -0.46875 v -1.0625 c 0 -0.261719 -0.207031 -0.46875 -0.46875 -0.46875 h -5.53125 v -2.046875 z m 0 0"/>
        <path d="m 4.007812 2.273438 v 5.722656 h 5.992188 v -4.050782 l -2 -1.9375 h -3.726562 c -0.171876 0 -0.265626 0.09375 -0.265626 0.265626 z m -1.023437 5.734374 c -0.5625 0 -0.984375 0.351563 -0.984375 0.992188 v 2.96875 h 9.96875 v -2.96875 c 0 -0.640625 -0.40625 -0.988281 -0.953125 -0.988281 v 0.976562 l -8.03125 0.035157 z m 0 0"/>
    </g>
</svg>

<svg xmlns="http://www.w3.org/2000/svg" width="16" height="16"><g fill="#222"><path d="M6 11.953V14H.469a.465.465 0 0 0-.469.469v1.062c0 .262.207.469.469.469H13.53a.465.465 0 0 0 .469-.469V14.47a.465.465 0 0 0-.469-.469H8v-2.047zm0 0"/><path d="M4.008 2.273v5.723H10v-4.05L8 2.007H4.273c-.171 0-.265.094-.265.265zM2.984 8.008C2.422 8.008 2 8.359 2 9v2.969h9.969V9c0-.64-.406-.988-.953-.988v.976l-8.032.035zm0 0"/></g></svg>
